packages/ui-icons/svg/Solid/rss.svg

<svg viewBox="0 0 1920 1920" version="1.1" xmlns="http://www.w3.org/2000/svg">
    <path d="M53.3333333,628.96 C735.786667,628.96 1291.09333,1184.16 1291.09333,1866.72 L1291.09333,1866.72 L1291.09333,1920.05333 L882.24,1920.05333 L882.24,1866.72 C882.24,1409.65333 510.4,1037.81333 53.3333333,1037.81333 L53.3333333,1037.81333 L0,1037.81333 L0,628.96 Z M53.3333333,0 C1082.56,0 1920,837.44 1920,1866.66667 L1920,1866.66667 L1920,1920 L1511.14667,1920 L1511.14667,1866.66667 C1511.14667,1062.82667 857.173333,408.853333 53.3333333,408.853333 L53.3333333,408.853333 L0,408.853333 L0,0 Z M267.189333,1386.66667 C413.962667,1386.66667 533.322667,1506.02667 533.322667,1652.8 C533.322667,1799.57333 413.962667,1919.04 267.189333,1919.04 C120.416,1919.04 0.949333333,1799.57333 0.949333333,1652.8 C0.949333333,1506.02667 120.416,1386.66667 267.189333,1386.66667 Z" stroke="none" stroke-width="1" fill-rule="evenodd"/>
</svg>

<svg viewBox="0 0 1920 1920" xmlns="http://www.w3.org/2000/svg">
    <path d="M53.333 628.96c682.454 0 1237.76 555.2 1237.76 1237.76v53.333H882.24v-53.333c0-457.067-371.84-828.907-828.907-828.907H0V628.96Zm0-628.96C1082.56 0 1920 837.44 1920 1866.667V1920h-408.853v-53.333c0-803.84-653.974-1457.814-1457.814-1457.814H0V0ZM267.19 1386.667c146.774 0 266.134 119.36 266.134 266.133 0 146.773-119.36 266.24-266.134 266.24S.95 1799.573.95 1652.8c0-146.773 119.467-266.133 266.24-266.133Z" fill-rule="evenodd"/>
</svg>
